svg/Pictogram/pictograms-nps-winter-winter_recreation_area.svg

<svg xmlns="http://www.w3.org/2000/svg" viewBox="0 0 256 256"><path d="m0 0c-.541 0-.981-.44-.981-.981v-7.522c0-.54.44-.979.981-.979h7.521c.54 0 .979.439.979.979v7.522c0 .541-.439.981-.979.981h-7.521" fill="#fff" transform="matrix(25.90307 0 0-25.90307 30.605 5.191)"/><path d="m0 0c.652 0 1.18.527 1.18 1.18v7.521c0 .653-.528 1.182-1.18 1.182h-7.521c-.652 0-1.181-.529-1.181-1.182v-7.521c0-.653.529-1.18 1.181-1.18h7.521" transform="matrix(25.90307 0 0-25.90307 225.41 256)"/><path d="m0 0l.283-.418h.528l.242.418-.256.445h-.527l-.27-.445m.217-3.361v.945l-.528-.297-.269.154v.332l.783.446v.621l-.568-.365v.658l-.543-.313v-.892l-.297-.184-.251.166v.598l-.824-.465-.352.148v.377l.865.473-.541.271v.346l.307.168.776-.457.539.311-.013.009-.551.317.535.332-.537.31-.776-.455-.291.145v.344l.525.295-.838.455v.377l.322.166.827-.477v.607l.249.168.304-.175-.002-.91.555-.317-.002.643.582-.313v.621l-.783.446v.33l.269.156.528-.297v.943l.303.198.304-.198v-.943l.547.303.275-.182v-.297l-.81-.459v-.621l.555.338v-.676l.57.311v.972l.275.129.289-.129v-.621l.85.459.297-.181v-.352l-.83-.472.519-.291v-.336l-.269-.149-.797.471-.551-.35.533-.332-.548-.316.566-.297.797.445.256-.181v-.321l-.5-.281.797-.473v-.371l-.338-.154-.782.445v-.59l-.281-.156-.275.156v.895l-.578.33v-.621l-.555.338v-.621l.783-.446v-.351l-.269-.135-.526.297v-.945l-.304-.196-.303.196" fill="#fff" transform="matrix(25.90307 0 0-25.90307 113.95 127.9)"/></svg>

<?xml version="1.0" encoding="UTF-8" standalone="no"?>
<!-- Created with Inkscape (http://www.inkscape.org/) -->
<svg
   xmlns:dc="http://purl.org/dc/elements/1.1/"
   xmlns:cc="http://creativecommons.org/ns#"
   xmlns:rdf="http://www.w3.org/1999/02/22-rdf-syntax-ns#"
   xmlns:svg="http://www.w3.org/2000/svg"
   xmlns="http://www.w3.org/2000/svg"
   xmlns:sodipodi="http://sodipodi.sourceforge.net/DTD/sodipodi-0.dtd"
   xmlns:inkscape="http://www.inkscape.org/namespaces/inkscape"
   width="256"
   height="256"
   id="svg8302"
   sodipodi:version="0.32"
   inkscape:version="0.46"
   version="1.0"
   sodipodi:docname="pictograms-nps-winter-winter_recreation_area-2.svg"
   inkscape:output_extension="org.inkscape.output.svg.inkscape">
  <defs
     id="defs8304">
    <inkscape:perspective
       sodipodi:type="inkscape:persp3d"
       inkscape:vp_x="0 : 526.18109 : 1"
       inkscape:vp_y="0 : 1000 : 0"
       inkscape:vp_z="744.09448 : 526.18109 : 1"
       inkscape:persp3d-origin="372.04724 : 350.78739 : 1"
       id="perspective8310" />
  </defs>
  <sodipodi:namedview
     id="base"
     pagecolor="#ffffff"
     bordercolor="#666666"
     borderopacity="1.0"
     gridtolerance="10000"
     guidetolerance="10"
     objecttolerance="10"
     inkscape:pageopacity="0.0"
     inkscape:pageshadow="2"
     inkscape:zoom="0.7"
     inkscape:cx="61.634556"
     inkscape:cy="136.73676"
     inkscape:document-units="px"
     inkscape:current-layer="layer1"
     showgrid="false"
     inkscape:window-width="738"
     inkscape:window-height="674"
     inkscape:window-x="0"
     inkscape:window-y="198" />
  <metadata
     id="metadata8307">
    <rdf:RDF>
      <cc:Work
         rdf:about="">
        <dc:format>image/svg+xml</dc:format>
        <dc:type
           rdf:resource="http://purl.org/dc/dcmitype/StillImage" />
      </cc:Work>
    </rdf:RDF>
  </metadata>
  <g
     inkscape:label="Layer 1"
     inkscape:groupmode="layer"
     id="layer1">
    <g
       id="g5370"
       transform="matrix(25.903066,0,0,-25.903066,30.604783,5.1909744)">
      <path
         d="M 0,0 C -0.541,0 -0.981,-0.44 -0.981,-0.981 L -0.981,-8.503 C -0.981,-9.043 -0.541,-9.482 0,-9.482 L 7.521,-9.482 C 8.061,-9.482 8.5,-9.043 8.5,-8.503 L 8.5,-0.981 C 8.5,-0.44 8.061,0 7.521,0 L 0,0 z"
         style="fill:#ffffff;fill-opacity:1;fill-rule:nonzero;stroke:none"
         id="path5372" />
    </g>
    <g
       id="g5374"
       transform="matrix(25.903066,0,0,-25.903066,225.40848,256)">
      <path
         d="M 0,0 C 0.652,0 1.18,0.527 1.18,1.18 L 1.18,8.701 C 1.18,9.354 0.652,9.883 0,9.883 L -7.521,9.883 C -8.173,9.883 -8.702,9.354 -8.702,8.701 L -8.702,1.18 C -8.702,0.527 -8.173,0 -7.521,0 L 0,0 z"
         style="fill:#000000;fill-opacity:1;fill-rule:nonzero;stroke:none"
         id="path5376" />
    </g>
    <g
       id="g5378"
       transform="matrix(25.903066,0,0,-25.903066,113.95297,127.90188)">
      <path
         d="M 0,0 L 0.283,-0.418 L 0.811,-0.418 L 1.053,0 L 0.797,0.445 L 0.27,0.445 L 0,0 z M 0.217,-3.361 L 0.217,-2.416 L -0.311,-2.713 L -0.58,-2.559 L -0.58,-2.227 L 0.203,-1.781 L 0.203,-1.16 L -0.365,-1.525 L -0.365,-0.867 L -0.908,-1.18 L -0.908,-2.072 L -1.205,-2.256 L -1.456,-2.09 L -1.456,-1.492 L -2.28,-1.957 L -2.632,-1.809 L -2.632,-1.432 L -1.767,-0.959 L -2.308,-0.688 L -2.308,-0.342 L -2.001,-0.174 L -1.225,-0.631 L -0.686,-0.32 L -0.699,-0.311 L -1.25,0.006 L -0.715,0.338 L -1.252,0.648 L -2.028,0.193 L -2.319,0.338 L -2.319,0.682 L -1.794,0.977 L -2.632,1.432 L -2.632,1.809 L -2.31,1.975 L -1.483,1.498 L -1.483,2.105 L -1.234,2.273 L -0.93,2.098 L -0.932,1.188 L -0.377,0.871 L -0.379,1.514 L 0.203,1.201 L 0.203,1.822 L -0.58,2.268 L -0.58,2.598 L -0.311,2.754 L 0.217,2.457 L 0.217,3.4 L 0.52,3.598 L 0.824,3.4 L 0.824,2.457 L 1.371,2.76 L 1.646,2.578 L 1.646,2.281 L 0.836,1.822 L 0.836,1.201 L 1.391,1.539 L 1.391,0.863 L 1.961,1.174 L 1.961,2.146 L 2.236,2.275 L 2.525,2.146 L 2.525,1.525 L 3.375,1.984 L 3.672,1.803 L 3.672,1.451 L 2.842,0.979 L 3.361,0.688 L 3.361,0.352 L 3.092,0.203 L 2.295,0.674 L 1.744,0.324 L 2.277,-0.008 L 1.729,-0.324 L 2.295,-0.621 L 3.092,-0.176 L 3.348,-0.357 L 3.348,-0.678 L 2.848,-0.959 L 3.645,-1.432 L 3.645,-1.803 L 3.307,-1.957 L 2.525,-1.512 L 2.525,-2.102 L 2.244,-2.258 L 1.969,-2.102 L 1.969,-1.207 L 1.391,-0.877 L 1.391,-1.498 L 0.836,-1.16 L 0.836,-1.781 L 1.619,-2.227 L 1.619,-2.578 L 1.35,-2.713 L 0.824,-2.416 L 0.824,-3.361 L 0.52,-3.557 L 0.217,-3.361 z"
         style="fill:#ffffff;fill-opacity:1;fill-rule:nonzero;stroke:none"
         id="path5380" />
    </g>
  </g>
</svg>
